X: 1
T: The High Bridge
R: jig
M: 6/8
L: 1/8
K: Amaj
Ace aga|fga efg|aec ecA|BcB EGB|
Ace aga|fga efg|aga Bed|eag a3:|
|:c'3c'3|a2c' ac'a|b3b3|g2b gbg
[1 c'3c'3|a2c' ac'a|gbg efg|a3a3:|
[2 aga efg|aec ecA|gbg efg|a3a3||

